app/assets/v2/images/chains/zilliqa.svg

<svg width="25" height="34" viewBox="0 0 25 34" fill="none" xmlns="http://www.w3.org/2000/svg">
<g clip-path="url(#clip0)">
<path d="M24.5758 14.0516L19.6839 16.2327L6.70628 22.8384L19.6839 29.0779V18.7644L24.5758 16.5599V31.7965L19.6839 33.9776L0.575806 24.8326V19.9718L13.8027 13.483L0.575806 7.12658V2.1957L5.54562 0.0145874L24.5758 9.17527V14.0516Z" fill="black"/>
<path d="M0.575806 2.1957L19.6839 11.3564L24.5758 9.17525L5.54562 0.0145874L0.575806 2.1957Z" fill="#157A8E"/>
<path d="M19.684 11.3357L24.576 9.15463V14.031L19.684 16.2121V11.3357Z" fill="#2F8E96"/>
<path d="M0.575806 2.20007V7.13093L13.8027 13.4873L0.575806 19.9761V24.8368L19.6839 33.9819V29.09L6.70628 22.8427L19.6839 16.2371V11.3607L0.575806 2.20007Z" fill="#4FC1BE"/>
<path d="M19.684 33.9456L24.576 31.7645V16.5279L19.684 18.7323V33.9456Z" fill="#2F8E96"/>
</g>
<defs>
<clipPath id="clip0">
<rect width="24" height="33.9751" fill="white" transform="translate(0.576355 0.0124512)"/>
</clipPath>
</defs>
</svg>

<svg xmlns="http://www.w3.org/2000/svg" width="25" height="34" fill="none"><g clip-path="url(#clip0)"><path fill="#000" d="M24.576 14.052l-4.892 2.18-12.978 6.606 12.978 6.24V18.764l4.892-2.204v15.237l-4.892 2.18L.576 24.834v-4.861l13.227-6.489L.576 7.127V2.196L5.546.015l19.03 9.16v4.877z"/><path fill="#157A8E" d="M.576 2.196l19.108 9.16 4.892-2.18L5.546.014l-4.97 2.18z"/><path fill="#2F8E96" d="M19.684 11.336l4.892-2.181v4.876l-4.892 2.181v-4.876z"/><path fill="#4FC1BE" d="M.576 2.2v4.93l13.227 6.357-13.227 6.49v4.86l19.108 9.145V29.09L6.706 22.843l12.978-6.606v-4.876L.576 2.2z"/><path fill="#2F8E96" d="M19.684 33.946l4.892-2.181V16.528l-4.892 2.204v15.214z"/></g><defs><clipPath id="clip0"><path fill="#fff" d="M0 0h24v33.975H0z" transform="translate(.576 .012)"/></clipPath></defs></svg>
